frontend/src/asset/google.svg

<svg width="30" height="30" viewBox="0 0 30 30" fill="none" xmlns="http://www.w3.org/2000/svg">
<g clip-path="url(#clip0_198_12)">
<path d="M30 0H0V30H30V0Z" fill="#F8F8F8"/>
<mask id="mask0_198_12" style="mask-type:luminance" maskUnits="userSpaceOnUse" x="7" y="7" width="17" height="17">
<path d="M23.25 7.5H7.5V23.25H23.25V7.5Z" fill="white"/>
</mask>
<g mask="url(#mask0_198_12)">
<path d="M23.0964 15.5565C23.0964 15.0211 23.053 14.4829 22.9605 13.9563H15.5325V16.9888H19.7861C19.6096 17.9668 19.0425 18.832 18.212 19.3819V21.3495H20.7497C22.2399 19.978 23.0964 17.9524 23.0964 15.5565Z" fill="#4285F4"/>
<path d="M15.5324 23.2504C17.6564 23.2504 19.4475 22.5531 20.7525 21.3493L18.2148 19.3817C17.5088 19.862 16.5973 20.134 15.5353 20.134C13.4808 20.134 11.7389 18.748 11.1138 16.8845H8.49512V18.9129C9.83199 21.5722 12.5549 23.2504 15.5324 23.2504Z" fill="#34A853"/>
<path d="M11.111 16.8846C10.7811 15.9066 10.7811 14.8475 11.111 13.8694V11.8411H8.4952C7.37823 14.0662 7.37823 16.6879 8.4952 18.913L11.111 16.8846Z" fill="#FBBC04"/>
<path d="M15.5324 10.617C16.6551 10.5996 17.7402 11.0221 18.5534 11.7976L20.8017 9.54923C19.3781 8.21236 17.4885 7.47739 15.5324 7.50053C12.5549 7.50053 9.83199 9.17881 8.49512 11.841L11.111 13.8694C11.7331 12.003 13.478 10.617 15.5324 10.617Z" fill="#EA4335"/>
</g>
</g>
<defs>
<clipPath id="clip0_198_12">
<rect width="30" height="30" fill="white"/>
</clipPath>
</defs>
</svg>

<svg xmlns="http://www.w3.org/2000/svg" width="30" height="30" fill="none"><g clip-path="url(#a)"><path fill="#F8F8F8" d="M30 0H0v30h30z"/><mask id="b" width="17" height="17" x="7" y="7" maskUnits="userSpaceOnUse" style="mask-type:luminance"><path fill="#fff" d="M23.25 7.5H7.5v15.75h15.75z"/></mask><g mask="url(#b)"><path fill="#4285F4" d="M23.096 15.557a9.3 9.3 0 0 0-.136-1.6h-7.427v3.032h4.253a3.65 3.65 0 0 1-1.574 2.393v1.967h2.538c1.49-1.371 2.346-3.397 2.346-5.792"/><path fill="#34A853" d="M15.532 23.25c2.124 0 3.916-.697 5.22-1.9l-2.537-1.968c-.706.48-1.618.752-2.68.752-2.054 0-3.796-1.386-4.421-3.25H8.495v2.029a7.88 7.88 0 0 0 7.037 4.337"/><path fill="#FBBC04" d="M11.111 16.885a4.7 4.7 0 0 1 0-3.016v-2.028H8.495a7.88 7.88 0 0 0 0 7.072z"/><path fill="#EA4335" d="M15.532 10.617a4.28 4.28 0 0 1 3.021 1.18l2.249-2.248a7.57 7.57 0 0 0-5.27-2.048 7.87 7.87 0 0 0-7.037 4.34l2.616 2.028c.622-1.866 2.367-3.252 4.421-3.252"/></g></g><defs><clipPath id="a"><path fill="#fff" d="M0 0h30v30H0z"/></clipPath></defs></svg>
